X: 9953
T: Devil And His Damn, The
R: jig
M: 6/8
K: Amajor
aaa aef|aef cef|aaa aef|cde EFA|
aaa aba|efe cBA|cea e2 A|cAA A3:|
AAA ecA|Ace fec|AAA cef|AcB AEF|
AAA ecA|Ace fec|aef e2 A|cAA A3:|

